!!!SOCIAL_FUNCTION:	deer dance songs
!!!PDT:	1932
!!!OTL: No_77_The_Owl_Hooted.krn
!!!REG: Southwest
!!!LANG: Non-Tone
!!!LING_GROUP: Yuman-Cochimi
**kern	**kern
*staff2	*staff1
=1-	=1-
*clefF4	*clefF4
*k[f#c#]	*k[f#c#]
*M3/4	*M3/4
4GG/	4B\
4GG/	4r
4GG/	4r
=2!|:	=2!|:
4GG/	4d\
4GG/	4e\
4GG/	4d\
=3	=3
2.r	4B\
.	4B\
.	16G\
.	16r
.	[8B\
=4||	=4||
*M2/4	*M2/4
2r	8B\L]
.	8G\J
.	8G\
.	8r
=5	=5
2r	4B\
.	16G\
.	16r
.	[8B\
=6||	=6||
*M3/4	*M3/4
2.r	8B\L]
.	8G\J
.	8B\L
.	8G\J
.	4G\
=7	=7
2.r	8.B\L
.	16G\Jk
.	8B\L
.	8G\J
.	4G\
=8||	=8||
*M2/4	*M2/4
2r	2G\
=9	=9
2r	4r
.	8r
.	8d\
=10	=10
2r	4d\
.	4d\
=11||	=11||
*M3/4	*M3/4
2.r	4B\
.	4B\
.	16G\
.	16r
.	[8B\
=12||	=12||
*M2/4	*M2/4
2r	4B\]
.	4r
==:|!	==:|!
*-	*-
